static/img/logo-example.svg

<svg width="139" height="38" viewBox="0 0 139 38" fill="none" xmlns="http://www.w3.org/2000/svg">
<path fill-rule="evenodd" clip-rule="evenodd" d="M38.029 7.273C38.029 3.25617 34.8002 0.000272277 30.8165 0C26.8327 0.000272275 23.603 3.25617 23.603 7.273C23.5995 9.16033 24.3291 10.9752 25.638 12.335L23.788 15.144L17.84 5.955C17.7362 5.79477 17.5927 5.66411 17.4234 5.57572C17.2542 5.48732 17.065 5.4442 16.8742 5.45054C16.6833 5.45688 16.4974 5.51247 16.3344 5.6119C16.1714 5.71133 16.0369 5.85123 15.944 6.018L5.59098 24.58H1.61098C0.997976 24.58 0.500977 25.08 0.500977 25.698C0.500977 26.316 0.997977 26.816 1.60998 26.816H38.406C38.4173 26.8162 38.4286 26.8162 38.44 26.816H43.052C43.665 26.816 44.162 26.316 44.162 25.698C44.162 25.08 43.665 24.58 43.052 24.58H39.072L33.258 14.118C34.6596 13.6046 35.8693 12.6724 36.7228 11.4478C37.5764 10.2232 38.0324 8.76568 38.029 7.273ZM29.895 24.58L25.107 17.183L29.072 11.162L36.529 24.58H29.895ZM16.98 8.72L27.247 24.58H8.13498L16.98 8.72ZM34.9174 10.3861C35.5899 9.48781 35.9519 8.39514 35.949 7.273C35.949 4.414 33.651 2.097 30.816 2.097C27.981 2.097 25.682 4.414 25.682 7.273C25.6797 8.45753 26.0835 9.60707 26.826 10.53L28.228 8.4C28.3327 8.24111 28.4767 8.11191 28.646 8.02489C28.8152 7.93786 29.0041 7.89594 29.1943 7.90318C29.3844 7.91041 29.5695 7.96656 29.7317 8.0662C29.8939 8.16584 30.0276 8.30561 30.12 8.472L32.221 12.253C33.2985 11.9397 34.2449 11.2845 34.9174 10.3861Z" fill="#9CA3AF"/>
<path d="M9.01297 31.29C9.01297 30.673 9.50897 30.173 10.12 30.173H34.541C35.152 30.173 35.648 30.673 35.648 31.29C35.648 31.906 35.152 32.406 34.54 32.406H10.12C9.50897 32.406 9.01297 31.907 9.01297 31.29Z" fill="#9CA3AF"/>
<path d="M17.523 36.882C17.523 36.264 18.02 35.763 18.633 35.763H26.028C26.641 35.763 27.138 36.264 27.138 36.882C27.138 37.5 26.641 38 26.029 38H18.633C18.02 38 17.523 37.499 17.523 36.882Z" fill="#9CA3AF"/>
<path fill-rule="evenodd" clip-rule="evenodd" d="M120.527 16.871C119.545 15.621 118.074 14.948 116.18 14.948C113.196 14.948 110.131 17.476 110.131 21.734C110.131 25.992 113.196 28.52 116.18 28.52C118.074 28.52 119.545 27.86 120.527 26.597V27.655C120.527 30.1 119.055 31.584 116.385 31.584C114.791 31.584 113.278 31.061 111.957 30.251L110.921 32.683C112.297 33.672 114.436 34.208 116.385 34.208C120.745 34.208 123.388 31.667 123.388 27.531V15.291H120.527V16.871ZM113.06 21.734C113.06 19.509 114.504 17.654 116.915 17.654C119.218 17.654 120.772 19.427 120.772 21.734C120.772 24.042 119.218 25.814 116.915 25.814C114.504 25.814 113.06 23.947 113.06 21.734Z" fill="#9CA3AF"/>
<path fill-rule="evenodd" clip-rule="evenodd" d="M104.841 16.885C103.942 15.717 102.593 14.948 100.74 14.948C97.09 14.948 94.214 17.846 94.214 21.871C94.214 25.896 97.089 28.795 100.74 28.795C102.594 28.795 103.942 28.04 104.841 26.872V28.452H107.689V15.292H104.841V16.885ZM97.143 21.871C97.143 19.564 98.629 17.654 101.081 17.654C103.438 17.654 105.019 19.467 105.019 21.871C105.019 24.275 103.438 26.089 101.081 26.089C98.629 26.089 97.143 24.179 97.143 21.871Z" fill="#9CA3AF"/>
<path fill-rule="evenodd" clip-rule="evenodd" d="M138.5 21.858C138.487 17.751 135.98 14.948 132.328 14.948C128.486 14.948 125.829 17.751 125.829 21.872C125.829 26.048 128.595 28.796 132.505 28.796C134.481 28.796 136.279 28.316 137.873 26.942L136.456 24.894C135.38 25.759 133.99 26.282 132.682 26.282C130.829 26.282 129.181 25.292 128.799 22.929H138.446C138.473 22.6 138.5 22.229 138.5 21.858ZM128.813 20.745C129.113 18.822 130.243 17.503 132.273 17.503C134.086 17.503 135.271 18.698 135.584 20.745H128.813Z" fill="#9CA3AF"/>
<path d="M64.8325 22.9558L59.287 9.21906H54.559V28.4521H57.639V12.7771L63.21 26.5701H66.453L72.026 12.6261V28.4521H75.106V9.21906H70.377L64.8325 22.9558Z" fill="#9CA3AF"/>
<path d="M81.704 15.2921V28.4521H78.843V15.2921H81.704Z" fill="#9CA3AF"/>
<path d="M93.886 15.3191C93.886 15.3191 93.8859 15.319 93.886 15.3191V15.3191Z" fill="#9CA3AF"/>
<path d="M91.692 14.9491C92.5639 14.9491 93.232 15.0581 93.886 15.3191L93.204 18.1611C92.605 17.8451 91.733 17.6801 91.038 17.6801C89.226 17.6801 87.932 18.9721 87.932 21.2101V28.4501H85.084V15.2901H87.904V16.7751C88.762 15.5251 90.098 14.9491 91.692 14.9491Z" fill="#9CA3AF"/>
<path d="M80.259 8.71106C81.39 8.71106 82.276 9.60406 82.276 10.7441C82.276 11.8841 81.39 12.7501 80.259 12.7501C79.129 12.7501 78.269 11.8841 78.269 10.7441C78.269 9.60406 79.129 8.71106 80.259 8.71106Z" fill="#9CA3AF"/>
</svg>

<svg xmlns="http://www.w3.org/2000/svg" width="139" height="38" fill="#9ca3af" xmlns:v="https://vecta.io/nano"><path fill-rule="evenodd" d="M38.029 7.273C38.029 3.256 34.8 0 30.817 0s-7.213 3.256-7.213 7.273a7.28 7.28 0 0 0 2.035 5.062l-1.85 2.809-5.948-9.189c-.104-.16-.247-.291-.417-.379s-.358-.132-.549-.125-.377.062-.54.161-.297.239-.39.406L5.591 24.58h-3.98c-.613 0-1.11.5-1.11 1.118s.497 1.118 1.109 1.118h36.796c.011 0 .023 0 .034 0h4.612c.613 0 1.11-.5 1.11-1.118s-.497-1.118-1.11-1.118h-3.98l-5.814-10.462a7.27 7.27 0 0 0 4.771-6.845zM29.895 24.58l-4.788-7.397 3.965-6.021 7.457 13.418h-6.634zM16.98 8.72l10.267 15.86H8.135L16.98 8.72zm17.937 1.666a5.17 5.17 0 0 0 1.032-3.113c0-2.859-2.298-5.176-5.133-5.176s-5.134 2.317-5.134 5.176a5.18 5.18 0 0 0 1.144 3.257l1.402-2.13c.105-.159.249-.288.418-.375s.358-.129.548-.122.375.063.537.163.296.239.388.406l2.101 3.781a5.17 5.17 0 0 0 2.696-1.867z"/><path d="M9.013 31.29c0-.617.496-1.117 1.107-1.117h24.421c.611 0 1.107.5 1.107 1.117a1.11 1.11 0 0 1-1.108 1.116H10.12a1.11 1.11 0 0 1-1.107-1.116zm8.51 5.592c0-.618.497-1.119 1.11-1.119h7.395c.613 0 1.11.501 1.11 1.119S26.641 38 26.029 38h-7.396c-.613 0-1.11-.501-1.11-1.118z"/><path d="M120.527 16.871c-.982-1.25-2.453-1.923-4.347-1.923-2.984 0-6.049 2.528-6.049 6.786s3.065 6.786 6.049 6.786c1.894 0 3.365-.66 4.347-1.923v1.058c0 2.445-1.472 3.929-4.142 3.929-1.594 0-3.107-.523-4.428-1.333l-1.036 2.432c1.376.989 3.515 1.525 5.464 1.525 4.36 0 7.003-2.541 7.003-6.677v-12.24h-2.861v1.58zm-7.467 4.863c0-2.225 1.444-4.08 3.855-4.08 2.303 0 3.857 1.773 3.857 4.08s-1.554 4.08-3.857 4.08c-2.411 0-3.855-1.867-3.855-4.08zm-8.219-4.849c-.899-1.168-2.248-1.937-4.101-1.937-3.65 0-6.526 2.898-6.526 6.923s2.875 6.924 6.526 6.924c1.854 0 3.202-.755 4.101-1.923v1.58h2.848v-13.16h-2.848v1.593zm-7.698 4.986c0-2.307 1.486-4.217 3.938-4.217 2.357 0 3.938 1.813 3.938 4.217s-1.581 4.218-3.938 4.218c-2.452 0-3.938-1.91-3.938-4.218zm41.357-.013c-.013-4.107-2.52-6.91-6.172-6.91-3.842 0-6.499 2.803-6.499 6.924 0 4.176 2.766 6.924 6.676 6.924 1.976 0 3.774-.48 5.368-1.854l-1.417-2.048c-1.076.865-2.466 1.388-3.774 1.388-1.853 0-3.501-.99-3.883-3.353h9.647l.054-1.071zm-9.687-1.113c.3-1.923 1.43-3.242 3.46-3.242 1.813 0 2.998 1.195 3.311 3.242h-6.771z" fill-rule="evenodd"/><path d="M64.832 22.956L59.287 9.219h-4.728v19.233h3.08V12.777L63.21 26.57h3.243l5.573-13.944v15.826h3.08V9.219h-4.729l-5.544 13.737zm16.872-7.664v13.16h-2.861v-13.16h2.861zm12.182.027h0z"/><path d="M91.692 14.949c.872 0 1.54.109 2.194.37l-.682 2.842c-.599-.316-1.471-.481-2.166-.481-1.812 0-3.106 1.292-3.106 3.53v7.24h-2.848V15.29h2.82v1.485c.858-1.25 2.194-1.826 3.788-1.826zM80.259 8.711c1.131 0 2.017.893 2.017 2.033a1.98 1.98 0 0 1-2.017 2.006c-1.13 0-1.99-.866-1.99-2.006s.86-2.033 1.99-2.033z"/></svg>
